styles/2/Numix/22/places/pink-folder-download.svg

<?xml version="1.0" encoding="UTF-8" standalone="no"?>
<svg
   xmlns:dc="http://purl.org/dc/elements/1.1/"
   xmlns:cc="http://creativecommons.org/ns#"
   xmlns:rdf="http://www.w3.org/1999/02/22-rdf-syntax-ns#"
   xmlns:svg="http://www.w3.org/2000/svg"
   xmlns="http://www.w3.org/2000/svg"
   xmlns:sodipodi="http://sodipodi.sourceforge.net/DTD/sodipodi-0.dtd"
   xmlns:inkscape="http://www.inkscape.org/namespaces/inkscape"
   width="22"
   height="22"
   viewBox="0 0 22 22"
   id="svg2"
   version="1.1"
   inkscape:version="0.91 r"
   sodipodi:docname="pink-folder-download.svg">
  <metadata
     id="metadata16">
    <rdf:RDF>
      <cc:Work
         rdf:about="">
        <dc:format>image/svg+xml</dc:format>
        <dc:type
           rdf:resource="http://purl.org/dc/dcmitype/StillImage" />
      </cc:Work>
    </rdf:RDF>
  </metadata>
  <defs
     id="defs14" />
  <sodipodi:namedview
     pagecolor="#ffffff"
     bordercolor="#666666"
     borderopacity="1"
     objecttolerance="10"
     gridtolerance="10"
     guidetolerance="10"
     inkscape:pageopacity="0"
     inkscape:pageshadow="2"
     inkscape:window-width="1280"
     inkscape:window-height="998"
     id="namedview12"
     showgrid="false"
     inkscape:zoom="7.5853273"
     inkscape:cx="27.122263"
     inkscape:cy="-7.1011634"
     inkscape:window-x="0"
     inkscape:window-y="0"
     inkscape:window-maximized="1"
     inkscape:current-layer="svg2" />
  <path
     style="font-size:medium;font-style:normal;font-variant:normal;font-weight:normal;font-stretch:normal;text-indent:0;text-align:start;text-decoration:none;line-height:normal;letter-spacing:normal;word-spacing:normal;text-transform:none;direction:ltr;block-progression:tb;writing-mode:lr-tb;text-anchor:start;baseline-shift:baseline;color:#000000;fill:#f06292;fill-opacity:1;fill-rule:nonzero;stroke:none;stroke-width:1.03313816;marker:none;visibility:visible;display:inline;overflow:visible;enable-background:accumulate;font-family:Sans;-inkscape-font-specification:Sans"
     d="m 3.0000115,1.9999999 c -0.5473306,0 -1,0.4096882 -1,1 l 0,0.9999999 -1,0 c -0.50192719,0 -0.999999988889,0.3847489 -0.999999988889,1 -1.51999999e-5,4.5937493 0,9.4062502 0,14.0000002 0,0.545771 0.493417298889,1 0.999999988889,1 l 20.0000005,0 c 0.515688,0 1,-0.437034 1,-1 l 0,-13.0000002 c 0,-0.5770209 -0.423105,-1 -1,-1 l -2,0 0,-2 c 0,-0.4874255 -0.401824,-1 -1,-1 z"
     id="path2995"
     inkscape:connector-curvature="0"
     sodipodi:nodetypes="ccccccssssscssc" />
  <path
     style="font-size:medium;font-style:normal;font-variant:normal;font-weight:normal;font-stretch:normal;text-indent:0;text-align:start;text-decoration:none;line-height:normal;letter-spacing:normal;word-spacing:normal;text-transform:none;direction:ltr;block-progression:tb;writing-mode:lr-tb;text-anchor:start;baseline-shift:baseline;color:#000000;fill:#000000;fill-opacity:0.32156863;fill-rule:nonzero;stroke:none;stroke-width:1.03313816;marker:none;visibility:visible;display:inline;overflow:visible;enable-background:accumulate;font-family:Sans;-inkscape-font-specification:Sans"
     d="m 3.0000115,1.9999999 c -0.5444543,0 -1,0.3988699 -1,1 l 0,0.9999999 -1,0 c -0.50675939,0 -0.999999988889,0.3964676 -0.999999988889,1 -2.59e-5,4.5937491 0,9.4062502 0,14.0000002 0,0.487177 0.419198598889,1 0.999999988889,1 l 20.0000005,0 c 0.521212,0 1,-0.442558 1,-1 l 0,-13.0000002 c 0,-0.5731146 -0.393904,-1 -1,-1 l -2,0 0,-2 c 0,-0.5585119 -0.457433,-1 -1,-1 z m 10.0000005,2.9999999 0,1 8,0 0,13.0000002 -20.0000005,0 0,-14.0000002 z"
     id="path3786"
     inkscape:connector-curvature="0"
     sodipodi:nodetypes="ssccccssssscsssccccccc" />
  <path
     style="fill:#000000;fill-opacity:0.32156863;stroke:none"
     d="m 11,7 c -0.554,0 -1,0.446 -1,1 l 0,4 -1.53125,0 c -0.631579,0 -0.631579,-0.0066 0,0.625 l 1.90625,1.90625 c 0.631579,0.6316 0.618421,0.6316 1.25,0 L 13.53125,12.625 c 0.631579,-0.6316 0.631579,-0.625 0,-0.625 L 12,12 12,8 C 12,7.446 11.554,7 11,7 z M 6.375,11 C 6.1658155,11 6,11.223 6,11.5 l 0,5 c 0,0.06925 0.012194,0.127641 0.03125,0.1875 0.00859,0.02333 0.01927,0.04099 0.03125,0.0625 0.015619,0.03389 0.041423,0.06584 0.0625,0.09375 0.053812,0.07126 0.1089967,0.107148 0.1875,0.125 C 6.3335619,16.973539 6.3528747,17 6.375,17 l 0.125,0 0.125,0 8.875,0 c 0.199305,0 0.388307,-0.113308 0.46875,-0.28125 0.0035,-0.0082 -0.0031,-0.02287 0,-0.03125 C 15.993984,16.627641 16,16.56925 16,16.5 l 0,-5 C 16,11.223 15.777,11 15.5,11 15.223,11 15,11.223 15,11.5 L 15,16 7,16 7,11.5 C 7,11.223 6.8341845,11 6.625,11 l -0.25,0 z"
     id="rect2989"
     inkscape:connector-curvature="0" />
</svg>

<svg xmlns="http://www.w3.org/2000/svg" viewBox="0 0 22 22">
 <path d="m 3 2 c -0.547 0 -1 0.41 -1 1 l 0 1 -1 0 c -0.502 0 -1 0.385 -1 1 0 4.594 0 9.406 0 14 0 0.546 0.493 1 1 1 l 20 0 c 0.516 0 1 -0.437 1 -1 l 0 -13 c 0 -0.577 -0.423 -1 -1 -1 l -2 0 0 -2 c 0 -0.487 -0.402 -1 -1 -1 z" style="visibility:visible;fill:#f06292;fill-opacity:1;stroke:none;display:inline;color:#000;fill-rule:nonzero"/>
 <path d="m 3 2 c -0.544 0 -1 0.399 -1 1 l 0 1 -1 0 c -0.507 0 -1 0.396 -1 1 0 4.594 0 9.406 0 14 0 0.487 0.419 1 1 1 l 20 0 c 0.521 0 1 -0.443 1 -1 l 0 -13 c 0 -0.573 -0.394 -1 -1 -1 l -2 0 0 -2 c 0 -0.559 -0.457 -1 -1 -1 z m 10 3 0 1 8 0 0 13 -20 0 0 -14 z" style="visibility:visible;fill:#000;fill-opacity:0.322;stroke:none;display:inline;color:#000;fill-rule:nonzero"/>
 <path d="m 11 7 c -0.554 0 -1 0.446 -1 1 l 0 4 -1.531 0 c -0.632 0 -0.632 -0.007 0 0.625 l 1.906 1.906 c 0.632 0.632 0.618 0.632 1.25 0 l 1.906 -1.906 c 0.632 -0.632 0.632 -0.625 0 -0.625 l -1.531 0 0 -4 c 0 -0.554 -0.446 -1 -1 -1 z m -4.625 4 c -0.209 0 -0.375 0.223 -0.375 0.5 l 0 5 c 0 0.069 0.012 0.128 0.031 0.188 0.009 0.023 0.019 0.041 0.031 0.063 0.016 0.034 0.041 0.066 0.063 0.094 0.054 0.071 0.109 0.107 0.188 0.125 c 0.021 0.005 0.04 0.031 0.063 0.031 l 0.125 0 0.125 0 8.875 0 c 0.199 0 0.388 -0.113 0.469 -0.281 0.004 -0.008 -0.003 -0.023 0 -0.031 c 0.025 -0.06 0.031 -0.118 0.031 -0.188 l 0 -5 c 0 -0.277 -0.223 -0.5 -0.5 -0.5 -0.277 0 -0.5 0.223 -0.5 0.5 l 0 4.5 -8 0 0 -4.5 c 0 -0.277 -0.166 -0.5 -0.375 -0.5 l -0.25 0 z" style="fill:#000;fill-opacity:0.322;stroke:none"/>
</svg>
